images/icon/icon_move.svg

<?xml version="1.0" encoding="utf-8"?>
<!-- Generator: Adobe Illustrator 16.0.0, SVG Export Plug-In . SVG Version: 6.00 Build 0)  -->
<!DOCTYPE svg PUBLIC "-//W3C//DTD SVG 1.1//EN" "http://www.w3.org/Graphics/SVG/1.1/DTD/svg11.dtd">
<svg version="1.1" id="圖層_1" xmlns="http://www.w3.org/2000/svg" xmlns:xlink="http://www.w3.org/1999/xlink" x="0px" y="0px"
	 width="28.35px" height="28.35px" viewBox="0 0 28.35 28.35" enable-background="new 0 0 28.35 28.35" xml:space="preserve">
<linearGradient id="SVGID_1_" gradientUnits="userSpaceOnUse" x1="428.0911" y1="-294.6653" x2="428.0911" y2="-267.6545" gradientTransform="matrix(1 0 0 -1 -413.915 -266.9849)">
	<stop  offset="0" style="stop-color:#040000"/>
	<stop  offset="0.4759" style="stop-color:#040000"/>
	<stop  offset="0.6474" style="stop-color:#030000"/>
	<stop  offset="0.7696" style="stop-color:#020101"/>
	<stop  offset="0.8683" style="stop-color:#000000"/>
	<stop  offset="0.952" style="stop-color:#010000"/>
	<stop  offset="0.9899" style="stop-color:#000000"/>
</linearGradient>
<path fill="url(#SVGID_1_)" d="M17.423,22.216l-2.46,4.926c-0.122,0.316-0.428,0.539-0.788,0.539c-0.357,0-0.665-0.223-0.786-0.539
	l-2.462-4.926c-0.082-0.129-0.128-0.129-0.128-0.445c0-0.314,0.378-0.844,0.844-0.844h5.064c0.468,0,0.846,0.529,0.846,0.844
	C17.552,22.087,17.504,22.087,17.423,22.216L17.423,22.216z M10.927,6.131l2.462-4.921c0.121-0.318,0.429-0.54,0.786-0.54
	c0.36,0,0.666,0.222,0.788,0.54l2.46,4.921c0.081,0.13,0.129,0.133,0.129,0.447c0,0.315-0.378,0.844-0.846,0.844h-5.064
	c-0.465,0-0.844-0.529-0.844-0.844C10.799,6.264,10.845,6.263,10.927,6.131L10.927,6.131z M22.219,10.927l4.924,2.461
	c0.315,0.12,0.537,0.428,0.537,0.787c0,0.358-0.222,0.664-0.542,0.787l-4.919,2.463c-0.13,0.08-0.133,0.127-0.447,0.127
	c-0.315,0-0.847-0.379-0.847-0.846v-5.064c0-0.465,0.531-0.845,0.847-0.845C22.086,10.797,22.089,10.844,22.219,10.927
	L22.219,10.927z M11.642,10.798h5.064c0.465,0,0.846,0.38,0.846,0.845v5.067c0,0.465-0.381,0.842-0.846,0.842h-5.064
	c-0.464,0-0.844-0.377-0.844-0.842v-5.067C10.799,11.178,11.178,10.798,11.642,10.798L11.642,10.798z M6.132,17.425l-4.92-2.463
	c-0.317-0.123-0.542-0.429-0.542-0.787c0-0.359,0.225-0.667,0.542-0.787l4.92-2.461c0.129-0.083,0.132-0.129,0.447-0.129
	c0.314,0,0.845,0.379,0.845,0.845v5.067c0,0.465-0.532,0.842-0.845,0.842C6.263,17.552,6.261,17.505,6.132,17.425z"/>
</svg>

<svg id="圖層_1" data-name="圖層 1" xmlns="http://www.w3.org/2000/svg" viewBox="0 0 27.01 27.01"><defs><style>.cls-1{fill:#fff;}</style></defs><path class="cls-1" d="M17.42,22.22,15,27.14a.84.84,0,0,1-1.57,0l-2.46-4.92a.55.55,0,0,1-.13-.45,1,1,0,0,1,.84-.84h5.07a1,1,0,0,1,.84.84.55.55,0,0,1-.13.45ZM10.93,6.13l2.46-4.92a.84.84,0,0,1,1.57,0l2.46,4.92a.55.55,0,0,1,.13.45,1,1,0,0,1-.84.84H11.64a1,1,0,0,1-.84-.84.55.55,0,0,1,.13-.45Zm11.29,4.8,4.92,2.46a.84.84,0,0,1,0,1.57l-4.92,2.46a.55.55,0,0,1-.45.13,1,1,0,0,1-.85-.84V11.64a1,1,0,0,1,.85-.84c.32,0,.32,0,.45.13ZM11.64,10.8h5.07a.85.85,0,0,1,.84.84v5.07a.84.84,0,0,1-.84.84H11.64a.84.84,0,0,1-.84-.84V11.64a.85.85,0,0,1,.84-.84ZM6.13,17.42,1.21,15a.84.84,0,0,1,0-1.57l4.92-2.46c.13-.09.13-.13.45-.13a1,1,0,0,1,.84.84v5.07a1,1,0,0,1-.84.84A.55.55,0,0,1,6.13,17.42Z" transform="translate(-0.67 -0.67)"/></svg>
